dist/img/svg/tooltip.svg

<svg width="6" height="11" viewBox="0 0 6 11" fill="none" xmlns="http://www.w3.org/2000/svg">
<path d="M3.78 7.85175H2.184C2.16533 7.35964 2.212 6.92324 2.324 6.54255C2.44533 6.16187 2.604 5.85082 2.8 5.60941C3.00533 5.35871 3.21067 5.13123 3.416 4.92696C3.62133 4.72268 3.81733 4.49984 4.004 4.25843C4.2 4.00773 4.33067 3.74775 4.396 3.47849C4.47067 2.93067 4.35867 2.50356 4.06 2.19715C3.76133 1.88146 3.36933 1.72361 2.884 1.72361C2.52 1.72361 2.18867 1.84432 1.89 2.08573C1.59133 2.32714 1.414 2.64747 1.358 3.04673H0C0.0373333 2.14608 0.312667 1.46363 0.826 0.999375C1.34867 0.535122 2.03 0.302996 2.87 0.302996C3.64467 0.284426 4.32133 0.47477 4.9 0.874027C5.488 1.27329 5.838 1.79789 5.95 2.44784C6.006 2.80068 6.01533 3.10708 5.978 3.36706C5.94067 3.70133 5.83333 4.01702 5.656 4.31414C5.488 4.60198 5.29667 4.85732 5.082 5.08016C4.87667 5.303 4.67133 5.53977 4.466 5.79047C4.26067 6.03188 4.09267 6.329 3.962 6.68183C3.83133 7.02538 3.77067 7.41535 3.78 7.85175ZM3.626 10.0523C3.458 10.2102 3.24333 10.2891 2.982 10.2891C2.72067 10.2891 2.49667 10.2102 2.31 10.0523C2.13267 9.89446 2.044 9.69019 2.044 9.43949C2.044 9.1888 2.13267 8.98453 2.31 8.82668C2.49667 8.66883 2.72067 8.58991 2.982 8.58991C3.24333 8.58991 3.458 8.66883 3.626 8.82668C3.80333 8.98453 3.892 9.1888 3.892 9.43949C3.892 9.69019 3.80333 9.89446 3.626 10.0523Z" fill="#444B58"/>
</svg>

<svg width="6" height="11" fill="none" xmlns="http://www.w3.org/2000/svg"><path d="M3.78 7.852H2.184a4.09 4.09 0 01.14-1.31c.121-.38.28-.691.476-.933.205-.25.41-.478.616-.682.205-.204.401-.427.588-.669.196-.25.327-.51.392-.78.075-.547-.037-.974-.336-1.28-.299-.317-.69-.474-1.176-.474-.364 0-.695.12-.994.362a1.447 1.447 0 00-.532.96H0C.037 2.147.313 1.465.826 1 1.349.535 2.03.303 2.87.303 3.645.284 4.321.475 4.9.874c.588.4.938.924 1.05 1.574.056.353.065.66.028.92a2.336 2.336 0 01-.322.946c-.168.288-.36.543-.574.766-.205.223-.41.46-.616.71a2.934 2.934 0 00-.504.892c-.13.343-.191.733-.182 1.17zm-.154 2.2a.903.903 0 01-.644.237c-.261 0-.485-.079-.672-.237a.782.782 0 01-.266-.613c0-.25.089-.454.266-.612.187-.158.41-.237.672-.237.261 0 .476.079.644.237a.782.782 0 01.266.612.784.784 0 01-.266.613z" fill="#444B58"/></svg>
